X:37
T:RVW2/2/37 The Jolly Harrin' (Herrings)
C:Ted Nevill, Little Bursted, Essex, 16 Apr 1904.
L:1/8
Q:1/4=120
M:6/8
I:linebreak $
K:G
"^Verse 1""^(Editorial suggestion)  " d | GGG G2 B | ddd B2 A | GGG A2 G | A6 |$ B2 B B2 B | 
w: As|I was a- walk- ing|out one May morn- ing|down by the ri- ver-|side|There I spied a|
Bcd e2 e | d2 d GBA | G3- G B c | ddd d2 d |$ Bce d3 | G2 A B2 B | d2 G AGF | G3 z2 ||$ 
w: jol- ly har- rin' come|row- ing down by the|tide * that was|for- ty feet wide and|fif- ty feet long.|Don't you think that|was a jol- ly har-|rin'?|
"^Verse 2." d | ddd d2 d | Bde d3 | d2 d ddd | (Bd)e d2 d/d/ |$ ddd d2 d | Bde d3 | G2 A BBB | 
w: O|what do you think I|made with his head?|There was o- ver ten|loaves * of bread, there was|ten loaves of bread and|oth- er fine things.|Don't you think I did|
ddB AGF | G3- G2 ||$"^Verses 3, 4, 5, 6, 7." d | ddd d2 d | Bde d2 d | ddd ddd | d2 d Bde |$ 
w: well with my jol- ly har-|rin'? *|O|what do you think I|made with his eyes? As|ma- ny as for- ty mince|cakes and fif- ty mince|
d3- d dd | d d2 ddd | d d2 ddd | Bde d3 |$ G2 A BBB | ddB AGF | G3- G2 |] 
w: pies * There was|mince cakes and there was|mince pies and there was|oth- er fine things.|Don't you think I did|well with my jol- ly har-|rin'? *|



